public/img/assets/icons/weather-conditions/small/wind-night.svg

<svg width="24" height="24" viewBox="0 0 24 24" fill="none" xmlns="http://www.w3.org/2000/svg">
<path d="M18.998 10C19.7739 10.007 20.517 10.3143 21.0713 10.8574C21.6255 11.4005 21.9479 12.1372 21.9706 12.9128C21.9934 13.6885 21.7149 14.4428 21.1934 15.0175C20.672 15.5922 19.9482 15.9425 19.174 15.995L18.967 16L18.865 16.007H17.7C17.89 16.38 17.998 16.802 17.998 17.249C17.998 18.779 16.845 20.006 15.323 20.006C13.818 20.006 12.908 19.124 12.663 17.903C12.6305 17.7108 12.6741 17.5134 12.7846 17.3528C12.895 17.1922 13.0638 17.0809 13.2549 17.0425C13.4461 17.0041 13.6447 17.0417 13.8086 17.1473C13.9725 17.2529 14.0888 17.4181 14.133 17.608C14.247 18.173 14.59 18.506 15.323 18.506C15.995 18.506 16.498 17.971 16.498 17.25C16.498 16.561 15.93 16 15.225 16L2.737 16.007C2.54562 16.009 2.36074 15.9377 2.22021 15.8077C2.07969 15.6778 1.99415 15.4991 1.98111 15.3081C1.96808 15.1172 2.02853 14.9285 2.15009 14.7807C2.27166 14.6329 2.44513 14.5371 2.635 14.513L2.737 14.507H15.124L15.225 14.5C15.29 14.5 15.353 14.502 15.416 14.506L18.888 14.508L18.942 14.502L19.142 14.493C19.4212 14.4656 19.6872 14.3603 19.9096 14.1893C20.132 14.0182 20.302 13.7882 20.4003 13.5254C20.4985 13.2626 20.5211 12.9775 20.4654 12.7025C20.4097 12.4275 20.278 12.1736 20.0852 11.9697C19.8924 11.7658 19.6463 11.6201 19.3749 11.5491C19.1034 11.478 18.8175 11.4846 18.5496 11.5679C18.2817 11.6513 18.0425 11.8081 17.8593 12.0206C17.676 12.2331 17.5561 12.4928 17.513 12.77L17.486 13.009C17.4524 13.1989 17.3469 13.3685 17.1915 13.4826C17.036 13.5968 16.8426 13.6467 16.6514 13.622C16.4602 13.5973 16.2858 13.4999 16.1645 13.35C16.0432 13.2001 15.9843 13.0092 16 12.817C16.0469 12.0539 16.3832 11.3375 16.9404 10.814C17.4975 10.2905 18.2335 9.99934 18.998 10ZM12 12H2.756C2.56597 12 2.38306 11.9278 2.24421 11.798C2.10536 11.6683 2.02092 11.4907 2.00797 11.3011C1.99502 11.1116 2.05451 10.9241 2.17443 10.7767C2.29435 10.6293 2.46575 10.5329 2.654 10.507L2.756 10.5H12C12.4945 10.5 12.9778 10.3534 13.3889 10.0787C13.8 9.80399 14.1205 9.41354 14.3097 8.95672C14.4989 8.49991 14.5484 7.99724 14.452 7.51229C14.3555 7.02734 14.1174 6.58188 13.7678 6.23225C13.4181 5.88262 12.9727 5.64451 12.4877 5.54805C12.0028 5.45159 11.5001 5.5011 11.0433 5.69032C10.5865 5.87953 10.196 6.19997 9.92132 6.61109C9.64662 7.02221 9.5 7.50556 9.5 8.00001C9.5 8.19893 9.42098 8.38969 9.28033 8.53034C9.13968 8.671 8.94891 8.75001 8.75 8.75001C8.55109 8.75001 8.36032 8.671 8.21967 8.53034C8.07902 8.38969 8 8.19893 8 8.00001C8.00002 7.21831 8.22909 6.45374 8.6589 5.8008C9.0887 5.14786 9.70041 4.63516 10.4184 4.32608C11.1364 4.017 11.9293 3.92507 12.6989 4.06166C13.4686 4.19825 14.1814 4.55738 14.7492 5.09465C15.317 5.63192 15.715 6.32379 15.8939 7.08476C16.0727 7.84572 16.0247 8.64242 15.7558 9.3764C15.4868 10.1104 15.0087 10.7495 14.3805 11.2147C13.7523 11.6799 13.0015 11.9508 12.221 11.994L12.001 12H2.755H12Z" fill="#D580FF"/>
</svg>

<svg width="24" height="24" fill="none" xmlns="http://www.w3.org/2000/svg"><path d="M18.998 10a3.001 3.001 0 0 1 .176 5.995l-.207.005-.102.007H17.7c.19.373.298.795.298 1.242 0 1.53-1.153 2.757-2.675 2.757-1.505 0-2.415-.882-2.66-2.103a.75.75 0 0 1 1.47-.295c.114.565.457.898 1.19.898.672 0 1.175-.535 1.175-1.256 0-.689-.568-1.25-1.273-1.25l-12.488.007a.75.75 0 0 1-.102-1.494l.102-.006h12.387l.101-.007c.065 0 .128.002.191.006l3.472.002.054-.006.2-.009a1.5 1.5 0 1 0-1.629-1.723l-.027.239A.75.75 0 0 1 16 12.817 3 3 0 0 1 18.998 10ZM12 12H2.756a.75.75 0 0 1-.102-1.493l.102-.007H12A2.5 2.5 0 1 0 9.5 8 .75.75 0 1 1 8 8a4 4 0 1 1 4.221 3.994l-.22.006H2.755 12Z" fill="#D580FF"/></svg>
